!!!OTL: "Der Schutzengel" O ENGEL REIN
!!!ARE: Europa, Mitteleuropa, Deutschland, Niederrhein
!!!SCT: Z1122
!!!YEM: Copyright 1995, estate of Helmut Schaffrath.
**kern
*ICvox
*Ivox
*M3/4
*k[f#]
*G:
=1
{4g
4g
4g
=2
4.a
8g
4f#
=3
4g
4f#
4e
=4
2d
4r}
=5
{4g
4g
4d
=6
2g
8a
8b
=7
8cc
8b
4a
4r}
=8
{8g
8a
4b
4cc
=9
4.dd
8cc
4b
=10
4cc
4b
4a
=11
2b
4r}
=12
{8g
8f#
8e
8f#
4g
=13
4.a
8b
8g
8f#
=14
8e
8f#
4g
4r}
==
!!!AGN: religioeses Lied
!!!ONB: ESAC (Essen Associative Code) Database: ZUCCAL
!!!AMT: simple triple
!!!AIN: vox
!!!EED: Helmut Schaffrath
!!!EEV: 1.0
*-
